assets/svg/networks/wallet_tether.svg

<svg width="36" height="36" viewBox="0 0 36 36" fill="none" xmlns="http://www.w3.org/2000/svg">
<g clip-path="url(#clip0_19002_45695)">
<rect width="36" height="36" rx="10" fill="#26A17B"/>
<path fill-rule="evenodd" clip-rule="evenodd" d="M20.1623 19.5559V19.5536C20.0385 19.5626 19.4006 19.6009 17.9775 19.6009C16.8413 19.6009 16.0414 19.5671 15.7601 19.5536V19.557C11.3861 19.3646 8.1214 18.603 8.1214 17.6918C8.1214 16.7816 11.3861 16.02 15.7601 15.8243V18.7987C16.0459 18.819 16.8649 18.8674 17.9966 18.8674C19.3545 18.8674 20.0352 18.8111 20.1623 18.7999V15.8265C24.5273 16.0211 27.7841 16.7828 27.7841 17.6918C27.7841 18.603 24.5273 19.3624 20.1623 19.5559ZM20.1623 15.5171V12.8554H26.253V8.79638H9.6694V12.8554H15.7601V15.516C10.8101 15.7433 7.08752 16.7242 7.08752 17.8988C7.08752 19.0732 10.8101 20.0531 15.7601 20.2815V28.8113H20.1623V20.2792C25.1044 20.052 28.818 19.0721 28.818 17.8988C28.818 16.7254 25.1044 15.7455 20.1623 15.5171Z" fill="white"/>
</g>
<defs>
<clipPath id="clip0_19002_45695">
<rect width="36" height="36" fill="white"/>
</clipPath>
</defs>
</svg>

<svg xmlns="http://www.w3.org/2000/svg" width="36" height="36" fill="none"><g clip-path="url(#a)"><rect width="36" height="36" fill="#26A17B" rx="10"/><path fill="#fff" fill-rule="evenodd" d="M20.162 19.556v-.002c-.123.009-.761.047-2.184.047-1.137 0-1.937-.034-2.218-.047v.003c-4.374-.192-7.639-.954-7.639-1.865 0-.91 3.265-1.672 7.64-1.868V18.8c.285.02 1.104.068 2.236.068 1.358 0 2.038-.056 2.165-.067v-2.974c4.365.195 7.622.957 7.622 1.866 0 .911-3.257 1.67-7.622 1.864m0-4.039v-2.662h6.091V8.796H9.669v4.06h6.091v2.66c-4.95.227-8.672 1.208-8.672 2.383 0 1.174 3.722 2.154 8.672 2.383v8.53h4.402v-8.533c4.942-.227 8.656-1.207 8.656-2.38 0-1.174-3.714-2.154-8.656-2.382" clip-rule="evenodd"/></g><defs><clipPath id="a"><path fill="#fff" d="M0 0h36v36H0z"/></clipPath></defs></svg>
